public/img/resa/calendar.svg

<svg xmlns="http://www.w3.org/2000/svg" xmlns:xlink="http://www.w3.org/1999/xlink" preserveAspectRatio="xMidYMid" width="128" height="128" viewBox="0 0 128 128">
  <defs>
    <style>
      .cls-1 {
        fill: #595959;
        fill-rule: evenodd;
      }
    </style>
  </defs>
  <path d="M122.000,128.000 L6.000,128.000 C2.686,128.000 0.000,125.315 0.000,122.000 L0.000,22.001 C0.000,18.687 2.686,16.000 6.000,16.000 L18.000,16.000 L18.000,22.001 C18.000,29.733 24.268,36.001 32.000,36.001 C39.732,36.001 46.000,29.733 46.000,22.001 L46.000,16.000 L82.000,16.000 L82.000,22.001 C82.000,29.733 88.268,36.001 96.000,36.001 C103.732,36.001 110.000,29.733 110.000,22.001 L110.000,16.000 L122.000,16.000 C125.314,16.000 128.000,18.687 128.000,22.001 L128.000,122.000 C128.000,125.315 125.314,128.000 122.000,128.000 ZM116.000,48.001 L12.000,48.001 L12.000,116.000 L116.000,116.000 L116.000,48.001 ZM39.591,89.430 C40.631,88.200 41.854,87.064 43.258,86.024 C44.661,84.984 46.143,83.927 47.703,82.852 C48.501,82.298 49.349,81.734 50.251,81.162 C51.152,80.590 51.975,79.958 52.721,79.264 C53.466,78.571 54.090,77.791 54.593,76.924 C55.096,76.058 55.347,75.070 55.347,73.960 C55.347,72.192 54.835,70.814 53.814,69.826 C52.790,68.838 51.482,68.344 49.887,68.344 C48.813,68.344 47.903,68.596 47.157,69.098 C46.412,69.600 45.814,70.260 45.363,71.074 C44.913,71.889 44.592,72.790 44.401,73.778 C44.210,74.766 44.116,75.746 44.116,76.716 L37.043,76.716 C36.974,74.637 37.216,72.704 37.771,70.918 C38.326,69.133 39.158,67.573 40.267,66.238 C41.377,64.904 42.772,63.864 44.454,63.118 C46.134,62.373 48.067,62.000 50.251,62.000 C51.915,62.000 53.502,62.260 55.010,62.780 C56.517,63.300 57.843,64.046 58.987,65.016 C60.131,65.987 61.041,67.183 61.717,68.604 C62.394,70.026 62.731,71.620 62.731,73.388 C62.731,75.226 62.436,76.803 61.847,78.120 C61.257,79.438 60.478,80.608 59.507,81.630 C58.536,82.653 57.435,83.580 56.205,84.412 C54.974,85.244 53.735,86.068 52.487,86.882 C51.239,87.698 50.026,88.572 48.847,89.508 C47.668,90.444 46.628,91.535 45.727,92.784 L62.939,92.784 L62.939,99.128 L36.211,99.128 C36.211,97.014 36.514,95.176 37.122,93.616 C37.727,92.056 38.551,90.661 39.591,89.430 ZM74.223,92.290 C75.298,93.278 76.667,93.772 78.331,93.772 C79.302,93.772 80.177,93.573 80.957,93.174 C81.738,92.776 82.395,92.256 82.933,91.614 C83.471,90.972 83.887,90.228 84.181,89.378 C84.476,88.529 84.623,87.654 84.623,86.752 C84.623,85.816 84.484,84.932 84.207,84.100 C83.930,83.268 83.514,82.540 82.959,81.916 C82.404,81.292 81.746,80.807 80.983,80.461 C80.220,80.114 79.336,79.940 78.331,79.940 C77.014,79.940 75.939,80.174 75.107,80.642 C74.275,81.110 73.496,81.847 72.768,82.852 L66.111,82.852 L69.699,62.728 L90.031,62.728 L90.031,68.813 L75.003,68.813 L73.547,77.080 L73.651,77.184 C74.656,76.179 75.731,75.460 76.875,75.026 C78.019,74.593 79.319,74.376 80.775,74.376 C82.577,74.376 84.172,74.706 85.559,75.364 C86.946,76.023 88.116,76.907 89.070,78.016 C90.022,79.126 90.750,80.434 91.253,81.942 C91.755,83.450 92.007,85.054 92.007,86.752 C92.007,88.624 91.643,90.366 90.915,91.978 C90.187,93.590 89.208,94.986 87.977,96.164 C86.746,97.343 85.316,98.253 83.687,98.894 C82.058,99.535 80.324,99.838 78.487,99.804 C76.719,99.804 75.029,99.570 73.417,99.102 C71.805,98.634 70.375,97.915 69.127,96.944 C67.879,95.974 66.882,94.769 66.137,93.330 C65.392,91.892 65.001,90.219 64.967,88.312 L72.351,88.312 C72.524,89.976 73.148,91.302 74.223,92.290 ZM96.000,28.001 C92.686,28.001 90.000,25.314 90.000,22.001 L90.000,6.001 C90.000,2.687 92.686,0.001 96.000,0.001 C99.314,0.001 102.000,2.687 102.000,6.001 L102.000,22.001 C102.000,25.314 99.314,28.001 96.000,28.001 ZM32.000,28.001 C28.686,28.001 26.000,25.314 26.000,22.001 L26.000,6.001 C26.000,2.687 28.686,0.001 32.000,0.001 C35.314,0.001 38.000,2.687 38.000,6.001 L38.000,22.001 C38.000,25.314 35.314,28.001 32.000,28.001 Z" class="cls-1"/>
</svg>

<svg xmlns="http://www.w3.org/2000/svg" width="128" height="128" preserveAspectRatio="xMidYMid"><defs><style>.cls-1 { fill: #595959; fill-rule: evenodd; }</style></defs><path d="M122 128H6c-3.3 0-6-2.7-6-6V22c0-3.3 2.7-6 6-6h12v6c0 7.73 6.27 14 14 14s14-6.27 14-14v-6h36v6c0 7.73 6.27 14 14 14s14-6.27 14-14v-6h12c3.3 0 6 2.7 6 6v100c0 3.3-2.7 6-6 6zm-6-80H12v68h104V48zM39.6 89.43c1.03-1.23 2.25-2.37 3.66-3.4 1.4-1.05 2.88-2.1 4.44-3.18.8-.55 1.65-1.12 2.55-1.7.9-.56 1.73-1.2 2.47-1.9.75-.68 1.37-1.46 1.87-2.33.5-.86.75-1.85.75-2.96 0-1.77-.52-3.15-1.54-4.13-1-1-2.32-1.5-3.9-1.5-1.1 0-2 .27-2.74.77-.75.5-1.35 1.16-1.8 1.97-.45.82-.77 1.72-.96 2.7-.2 1-.28 1.98-.28 2.95h-7.08c-.07-2.08.18-4.02.73-5.8.56-1.8 1.4-3.35 2.5-4.68 1.1-1.34 2.5-2.38 4.18-3.12 1.68-.75 3.62-1.12 5.8-1.12 1.66 0 3.25.26 4.76.78 1.52.52 2.84 1.27 4 2.24 1.13.97 2.04 2.16 2.72 3.58.67 1.43 1 3.02 1 4.8 0 1.83-.28 3.4-.87 4.72-.6 1.32-1.37 2.5-2.34 3.5-.96 1.03-2.06 1.96-3.3 2.8-1.23.82-2.47 1.65-3.7 2.46-1.26.82-2.47 1.7-3.65 2.63-1.18.94-2.22 2.03-3.12 3.28h17.2v6.35H36.22c0-2.12.3-3.95.92-5.5.6-1.57 1.43-2.97 2.47-4.2zM74.2 92.3c1.08.98 2.45 1.47 4.1 1.47.98 0 1.86-.2 2.64-.6.78-.4 1.44-.9 1.97-1.56.54-.63.96-1.37 1.25-2.22.3-.85.44-1.73.44-2.63 0-.93-.14-1.82-.4-2.65-.3-.83-.7-1.56-1.26-2.18-.56-.63-1.2-1.1-1.98-1.46-.76-.35-1.64-.52-2.65-.52-1.32 0-2.4.23-3.22.7-.82.47-1.6 1.2-2.33 2.2H66.1l3.6-20.1h20.33v6.07H75l-1.45 8.28.1.1c1-1 2.08-1.72 3.22-2.15 1.15-.44 2.45-.65 3.9-.65 1.8 0 3.4.33 4.8.98 1.38.66 2.55 1.55 3.5 2.66.95 1.1 1.68 2.4 2.18 3.92.5 1.5.76 3.1.76 4.8 0 1.88-.36 3.63-1.08 5.24-.73 1.6-1.7 3-2.94 4.18-1.23 1.18-2.66 2.1-4.3 2.73-1.62.63-3.36.94-5.2.9-1.76 0-3.45-.23-5.06-.7-1.6-.47-3.05-1.18-4.3-2.16-1.24-.97-2.24-2.17-2.98-3.6-.75-1.45-1.14-3.12-1.17-5.03h7.38c.17 1.68.8 3 1.87 4zM96 28c-3.3 0-6-2.7-6-6V6c0-3.3 2.7-6 6-6s6 2.7 6 6v16c0 3.3-2.7 6-6 6zm-64 0c-3.3 0-6-2.7-6-6V6c0-3.3 2.7-6 6-6s6 2.7 6 6v16c0 3.3-2.7 6-6 6z" class="cls-1"/></svg>
